X:1
T:Title
%%score { ( 1 4 ) | ( 2 3 ) }
L:1/8
M:4/4
K:C
V:1 treble nm="Grand Piano"
V:4 treble 
V:2 bass 
V:3 bass 
V:1
 z4 z2[Q:1/4=96] [EG]>[EG] | [Ec]>[Ec] [Ec]>[Ec] [FB]>[DF] [FB]>[B,FA] | %2
 [CEG]4 [CE]2 [G,CE]>[G,CE] | [DF]>[^CE] [DF]>[=CE] [B,D]>[FA] [EG]>[DF] | E4 G2 [EG]>[EG] | %5
 [Ec]>[Ec] [Ec]>[Ec] [FB]>[DF] [FB]>[B,FA] |[M:9/8] E3- E- [Ec]2- [Ec-]/c<[Ge][Ge]/ | %7
 d<dd- d/d/ c2 B- [FB]2 | [Ec]8- [Ec] |[M:1/4] [Ec]>[GB] |[M:4/4] A<A A>A [Ac]2 [GB][FA] | %11
 [EG]6 [EG]>[EG] | c<c c>c c2 de | d6 G>G | [Ge]>[Ge] [Ge]>[Fd] [Ec]2 [EG]>[EG] | %15
[M:9/8] A>AA- A/A/ [^Fd]2- [Fd]c>A | G<GG- G/G/ A2 [FB]3 |[M:3/4] [Ec]6 |] %18
V:2
 z4 z2 [C,C]>[C,C] | [C,G,]>[C,G,] [C,G,]>[C,G,] [D,G,]>[D,G,] [G,,G,]>G,, | z4 G,2 C,>C, | %3
 [G,,G,]>[G,,G,] [G,,G,]>[G,,G,] [G,,G,]>[G,,G,] [G,,G,]>[B,,G,] | [G,C]4 [CE]2 [C,C]>[C,C] | %5
 [C,G,]>[C,G,] [C,G,]>[C,G,] [D,G,]>[D,G,] [G,,G,]>G,, |[M:9/8] z3 z C2- C[C,C]>[C,C] | %7
 [F,A,F]<[F,A,F][F,A,F]- [F,A,F]/[F,A,F]/ [G,E]2 [G,,G,]3 | [C,G,]8- [C,G,] |[M:1/4] [C,G,]>[C,C] | %10
[M:4/4] [F,CF]<[F,CF] [F,CF]>[F,CF] [F,C]2 [F,C]2 | [C,C]6 [C,C]>[C,C] | %12
 [A,CE]<[A,CE] [A,CE]>[A,CE] [A,CE]2 [D,C]2 | [G,B,G]6 [G,B,]>[K:bass][G,B,] | %14
 [C,C]>[C,C] [C,C]>[C,G,] [C,G,]2 [C,C]>[C,C] | %15
[M:9/8] [F,CF]>[F,CF][F,CF]- [F,CF]/[F,CF]/ [D,C]2- [D,C][^F,C_E]>[F,CE] | %16
 [G,CE]<[G,CE][G,CE]- [G,CE]/[G,CE]/ [G,B,F]2[K:bass] [G,,G,]3 |[M:3/4] [C,G,]6 |] %18
V:3
 x8 | x8 | C,6 z2 | x8 | C,6 z2 | x8 |[M:9/8] C,6- C,/ z/ z z | x9 | x9 |[M:1/4] x2 |[M:4/4] x8 | %11
 x8 | x8 | x15/2[K:bass] x/ | x8 |[M:9/8] x9 | x6[K:bass] x3 |[M:3/4] x6 |] %18
V:4
 x8 | x8 | x8 | x8 | x8 | x8 |[M:9/8] .[G,G]6 z3 | z3 z3 .D3 | x9 |[M:1/4] x2 |[M:4/4] x8 | x8 | %12
 z4 z2 ^F2 | x8 | x8 |[M:9/8] x9 | x9 |[M:3/4] x6 |] %18

